public/assets/dashboard.svg

<svg width="20" height="20" viewBox="0 0 20 20" fill="none" xmlns="http://www.w3.org/2000/svg">
<path fill-rule="evenodd" clip-rule="evenodd" d="M1 4.5C1 1.87479 1.02811 1 4.5 1C7.97189 1 8 1.87479 8 4.5C8 7.12521 8.01107 8 4.5 8C0.988927 8 1 7.12521 1 4.5Z" stroke="#1DC071" stroke-width="2" stroke-linecap="round" stroke-linejoin="round"/>
<path fill-rule="evenodd" clip-rule="evenodd" d="M12 4.5C12 1.87479 12.0281 1 15.5 1C18.9719 1 19 1.87479 19 4.5C19 7.12521 19.0111 8 15.5 8C11.9889 8 12 7.12521 12 4.5Z" stroke="#1DC071" stroke-width="2" stroke-linecap="round" stroke-linejoin="round"/>
<path fill-rule="evenodd" clip-rule="evenodd" d="M1 15.5C1 12.8748 1.02811 12 4.5 12C7.97189 12 8 12.8748 8 15.5C8 18.1252 8.01107 19 4.5 19C0.988927 19 1 18.1252 1 15.5Z" stroke="#1DC071" stroke-width="2" stroke-linecap="round" stroke-linejoin="round"/>
<path fill-rule="evenodd" clip-rule="evenodd" d="M12 15.5C12 12.8748 12.0281 12 15.5 12C18.9719 12 19 12.8748 19 15.5C19 18.1252 19.0111 19 15.5 19C11.9889 19 12 18.1252 12 15.5Z" stroke="#1DC071" stroke-width="2" stroke-linecap="round" stroke-linejoin="round"/>
</svg>

<svg width="20" height="20" fill="none" xmlns="http://www.w3.org/2000/svg"><path clip-rule="evenodd" d="M1 4.5C1 1.875 1.028 1 4.5 1S8 1.875 8 4.5 8.011 8 4.5 8 1 7.125 1 4.5ZM12 4.5c0-2.625.028-3.5 3.5-3.5s3.5.875 3.5 3.5.011 3.5-3.5 3.5S12 7.125 12 4.5ZM1 15.5c0-2.625.028-3.5 3.5-3.5s3.5.875 3.5 3.5.011 3.5-3.5 3.5S1 18.125 1 15.5ZM12 15.5c0-2.625.028-3.5 3.5-3.5s3.5.875 3.5 3.5.011 3.5-3.5 3.5-3.5-.875-3.5-3.5Z" stroke="#1DC071" stroke-width="2" stroke-linecap="round" stroke-linejoin="round"/></svg>
